sanatorium/img/svg/icon-fb.svg

<svg width="30" height="30" viewBox="0 0 30 30" fill="none" xmlns="http://www.w3.org/2000/svg">
<path d="M22.7903 4.97979L19.9664 4.98103C17.7523 4.98103 17.3236 6.03323 17.3236 7.57739V10.9822H22.6042L22.6024 16.3152H17.3236V30H11.8157V16.3152H7.21094V10.9822H11.8157V7.04958C11.8157 2.48537 14.6038 0 18.6754 0L22.7907 0.00654702L22.7903 4.97979Z" fill="#D9576B"/>
</svg>

<svg width="30" height="30" fill="none" xmlns="http://www.w3.org/2000/svg"><path d="M22.79 4.98l-2.824.001c-2.214 0-2.642 1.052-2.642 2.596v3.405h5.28l-.002 5.333h-5.278V30h-5.508V16.315H7.21v-5.333h4.605V7.05c0-4.565 2.788-7.05 6.86-7.05l4.115.007V4.98z" fill="#D9576B"/></svg>
